X: 1
P: Grace Hay's Delight
C: Niel Gow Colln., arr. T. Traub, 2-26-2004
L: 1/8
M: 6/8
K: G
D \
|:"G"G2c B2c | "G"dBd "C"efg | "G"G2c B2c | "G"dBG "D"AFD \
| "C"E2C CEG | "D"F2D D2c | "G"B/c/dB "D"cAF | "G"G3 G3 :|
[|"G"d2g f2g | "D"afd "A"e^cA | "D"fga "Bm"B^cd | "Em"efd "A"^cBA \
| "D"afa "A7"geg | "D"fdf "A"e^cA | "G"Bgf "A"ed^c | "D"d2d d=cB |]
[|"C"=c2c cac | "G"B2B BgB | "Am"ABA ABc | "G"dBG "D"AFD \
| "C"E2C CEG | "D"F2D D2 c | "G"B/c/dB "D"cAF | "G"G3 G2 |]
